Origami/32x32/apps/qtqr.svg

<svg width="32" height="32" version="1" xmlns="http://www.w3.org/2000/svg">
 <rect transform="matrix(0,-1,-1,0,0,0)" x="-31" y="-30" width="28" height="28" rx="1.4" ry="1.4" style="opacity:.2"/>
 <rect transform="matrix(0,-1,-1,0,0,0)" x="-30" y="-30" width="28" height="28" rx="1.4" ry="1.4" style="fill:#c2352a"/>
 <path d="M 3.4003906 2 C 2.6247906 2 2 2.6247906 2 3.4003906 L 2 4.4003906 C 2 3.6247906 2.6247906 3 3.4003906 3 L 28.599609 3 C 29.375209 3 30 3.6247906 30 4.4003906 L 30 3.4003906 C 30 2.6247906 29.375209 2 28.599609 2 L 3.4003906 2 z" style="fill:#ffffff;opacity:.2"/>
 <path d="m4 4v8h8v-8h-8zm10 0v4h2v-2h2v-2h-2-2zm2 4v4h2v-4h-2zm0 4h-2v2h2v-2zm0 2v2h2v-2h-2zm2 2v2h4v-4h-2v2h-2zm4 2v2h2v2h2v-4h-4zm4 0h2v-2-2h-4v2h2v2zm-4 2h-2v2h2v-2zm-2 2h-2v2h2v-2zm0 2v2h2v-2h-2zm2 2v2h2v-2h-2zm2 0h4v-2h-4v2zm-6-2h-4v2h2v2h2v-2-2zm0-2v-4h-4v2h2v2h2zm-4-4v-4h-2v2h-2v2h4zm-4-2v-2h-2-4v4h4v-2h2zm10-12v8h8v-8h-8zm-14 2h4v4h-4v-4zm16 0h4v4h-4v-4zm-15 1v2h2v-2h-2zm16 0v2h2v-2h-2zm-19 13v8h8v-8h-8zm2 2h4v4h-4v-4zm1 1v2h2v-2h-2z" style="opacity:.5"/>
</svg>

<svg xmlns="http://www.w3.org/2000/svg" width="32" height="32" version="1">
 <rect style="opacity:0.2" width="28" height="28" x="-31" y="-30" rx="1.4" ry="1.4" transform="matrix(0,-1,-1,0,0,0)"/>
 <rect style="fill:#c2352a" width="28" height="28" x="-30" y="-30" rx="1.4" ry="1.4" transform="matrix(0,-1,-1,0,0,0)"/>
 <path style="fill:#ffffff;opacity:0.2" d="M 3.4003906 2 C 2.6247906 2 2 2.6247906 2 3.4003906 L 2 4.4003906 C 2 3.6247906 2.6247906 3 3.4003906 3 L 28.599609 3 C 29.375209 3 30 3.6247906 30 4.4003906 L 30 3.4003906 C 30 2.6247906 29.375209 2 28.599609 2 L 3.4003906 2 z"/>
 <path style="opacity:0.5" d="M 4 4 L 4 12 L 12 12 L 12 4 L 4 4 z M 14 4 L 14 8 L 16 8 L 16 6 L 18 6 L 18 4 L 16 4 L 14 4 z M 16 8 L 16 12 L 18 12 L 18 8 L 16 8 z M 16 12 L 14 12 L 14 14 L 16 14 L 16 12 z M 16 14 L 16 16 L 18 16 L 18 14 L 16 14 z M 18 16 L 18 18 L 22 18 L 22 14 L 20 14 L 20 16 L 18 16 z M 22 18 L 22 20 L 24 20 L 24 22 L 26 22 L 26 18 L 22 18 z M 26 18 L 28 18 L 28 16 L 28 14 L 24 14 L 24 16 L 26 16 L 26 18 z M 22 20 L 20 20 L 20 22 L 22 22 L 22 20 z M 20 22 L 18 22 L 18 24 L 20 24 L 20 22 z M 20 24 L 20 26 L 22 26 L 22 24 L 20 24 z M 22 26 L 22 28 L 24 28 L 24 26 L 22 26 z M 24 26 L 28 26 L 28 24 L 24 24 L 24 26 z M 18 24 L 14 24 L 14 26 L 16 26 L 16 28 L 18 28 L 18 26 L 18 24 z M 18 22 L 18 18 L 14 18 L 14 20 L 16 20 L 16 22 L 18 22 z M 14 18 L 14 14 L 12 14 L 12 16 L 10 16 L 10 18 L 14 18 z M 10 16 L 10 14 L 8 14 L 4 14 L 4 18 L 8 18 L 8 16 L 10 16 z M 20 4 L 20 12 L 28 12 L 28 4 L 20 4 z M 6 6 L 10 6 L 10 10 L 6 10 L 6 6 z M 22 6 L 26 6 L 26 10 L 22 10 L 22 6 z M 7 7 L 7 9 L 9 9 L 9 7 L 7 7 z M 23 7 L 23 9 L 25 9 L 25 7 L 23 7 z M 4 20 L 4 28 L 12 28 L 12 20 L 4 20 z M 6 22 L 10 22 L 10 26 L 6 26 L 6 22 z M 7 23 L 7 25 L 9 25 L 9 23 L 7 23 z"/>
</svg>
